Demos/lut/custom.3DL
#Created by: Adobe Photoshop Export Color Lookup Plugin
#Description: Untitled-1
0 68 136 205 273 341 409 477 546 614 682 750 818 887 955 1023
0 0 0
0 0 0
0 0 0
0 0 0
0 0 0
0 0 0
0 0 0
0 0 0
0 0 0
0 0 1365
0 0 1365
0 0 1365
0 0 1365
0 0 1365
0 0 1365
0 0 1365
0 0 0
0 0 0
0 0 0
0 0 0
0 0 0
0 0 0
0 0 0
0 0 1365
0 0 1365
0 0 1365
0 0 1365
0 0 1365
0 0 1365
0 0 2730
1365 0 2730
1365 0 2730
0 0 0
0 0 0
0 0 0
0 0 0
0 0 0
0 0 0
0 0 0
0 0 1365
0 0 1365
0 0 1365
0 0 1365
0 0 1365
0 0 1365
1365 0 2730
1365 0 2730
1365 0 2730
0 0 0
0 0 0
0 0 0
0 0 0
0 0 0
0 0 0
0 0 1365
0 0 1365
0 0 1365
0 0 1365
0 0 1365
0 0 1365
0 0 1365
1365 0 2730
1365 0 2730
1365 0 2730
0 0 0
0 0 0
0 0 0
0 0 0
0 0 0
0 0 0
0 0 1365
0 0 1365
0 0 1365
0 0 1365
0 0 1365
0 0 1365
1365 0 1365
1365 0 2730
1365 0 2730
1365 0 2730
0 1365 0
0 1365 0
0 1365 0
0 1365 0
0 1365 0
0 1365 0
0 1365 1365
0 1365 1365
0 1365 1365
0 1365 1365
0 1365 1365
0 1365 1365
1365 1365 2730
1365 0 2730
1365 0 2730
1365 0 2730
0 1365 0
0 1365 0
0 1365 0
0 1365 0
0 1365 0
0 1365 0
0 1365 1365
0 1365 1365
0 1365 1365
0 1365 1365
0 1365 1365
1365 1365 1365
1365 1365 2730
1365 1365 2730
1365 1365 2730
1365 1365 2730
0 1365 0
0 1365 0
0 1365 0
0 1365 0
0 1365 0
0 1365 0
0 1365 1365
0 1365 1365
0 1365 1365
0 1365 1365
1365 1365 1365
1365 1365 1365
1365 1365 2730
1365 1365 2730
1365 1365 2730
1365 1365 2730
0 1365 0
0 1365 0
0 1365 0
0 1365 0
0 1365 0
0 1365 0
0 1365 1365
0 1365 1365
1365 1365 1365
1365 1365 1365
1365 1365 1365
1365 1365 1365
1365 1365 2730
1365 1365 2730
1365 1365 2730
1365 1365 2730
0 1365 0
0 1365 0
0 1365 0
0 1365 0
0 1365 0
0 1365 1365
0 1365 1365
1365 1365 1365
1365 1365 1365
1365 1365 1365
1365 1365 1365
1365 1365 2730
1365 1365 2730
1365 1365 2730
1365 1365 2730
1365 1365 2730
0 2730 0
0 2730 0
0 2730 0
0 2730 0
1365 2730 0
1365 2730 1365
1365 2730 1365
1365 2730 1365
1365 2730 1365
1365 2730 1365
1365 2730 1365
1365 2730 2730
1365 2730 2730
1365 2730 2730
1365 2730 2730
1365 2730 2730
0 2730 0
1365 2730 0
1365 2730 0
1365 2730 0
1365 2730 0
1365 2730 1365
1365 2730 1365
1365 2730 1365
1365 2730 1365
1365 2730 1365
1365 2730 1365
1365 2730 2730
1365 2730 2730
1365 2730 2730
1365 2730 2730
1365 2730 2730
1365 2730 0
1365 2730 0
1365 2730 0
1365 2730 0
1365 2730 0
1365 2730 1365
1365 2730 1365
1365 2730 1365
1365 2730 1365
1365 2730 1365
1365 2730 1365
1365 2730 2730
1365 2730 2730
1365 2730 2730
1365 2730 2730
1365 2730 2730
1365 2730 0
1365 2730 0
1365 2730 0
1365 2730 0
1365 2730 0
1365 2730 1365
1365 2730 1365
1365 2730 1365
1365 2730 1365
1365 2730 1365
1365 2730 1365
1365 2730 2730
1365 2730 2730
1365 2730 2730
1365 2730 2730
1365 2730 2730
1365 2730 0
1365 4095 0
1365 4095 0
1365 4095 0
1365 4095 0
1365 4095 1365
1365 4095 1365
1365 4095 1365
1365 4095 1365
1365 4095 1365
1365 4095 1365
1365 4095 2730
1365 4095 2730
1365 4095 2730
1365 4095 2730
1365 4095 2730
1365 4095 0
1365 4095 0
1365 4095 0
1365 4095 0
1365 4095 0
1365 4095 0
1365 4095 1365
1365 4095 1365
1365 4095 1365
1365 4095 1365
1365 4095 1365
1365 4095 2730
1365 4095 2730
1365 4095 2730
1365 4095 2730
1365 4095 2730
0 0 0
0 0 0
0 0 0
0 0 0
0 0 0
0 0 0
0 0 0
0 0 1365
0 0 1365
0 0 1365
0 0 1365
0 0 1365
0 0 1365
0 0 1365
0 0 1365
0 0 2730
0 0 0
0 0 0
0 0 0
0 0 0
0 0 0
0 0 0
0 0 1365
0 0 1365
0 0 1365
0 0 1365
0 0 1365
0 0 1365
0 0 1365
1365 0 2730
1365 0 2730
1365 0 2730
0 0 0
0 0 0
0 0 0
0 0 0
0 0 0
0 0 0
0 0 1365
0 0 1365
0 0 1365
0 0 1365
0 0 1365
0 0 1365
1365 0 2730
1365 0 2730
1365 0 2730
1365 0 2730
0 0 0
0 0 0
0 0 0
0 0 0
0 0 0
0 0 0
0 0 1365
0 0 1365
0 0 1365
0 0 1365
0 0 1365
1365 0 1365
1365 0 2730
1365 0 2730
1365 0 2730
1365 0 2730
0 0 0
0 0 0
0 0 0
0 0 0
0 0 0
0 0 0
0 0 1365
0 0 1365
0 0 1365
0 0 1365
0 0 1365
1365 0 1365
1365 0 2730
1365 0 2730
1365 0 2730
1365 0 2730
0 1365 0
0 1365 0
0 1365 0
0 1365 0
0 1365 0
0 1365 0
0 1365 1365
0 1365 1365
0 1365 1365
0 1365 1365
1365 1365 1365
1365 1365 1365
1365 1365 2730
1365 1365 2730
1365 1365 2730
1365 1365 2730
0 1365 0
0 1365 0
0 1365 0
0 1365 0
0 1365 0
0 1365 1365
0 1365 1365
0 1365 1365
0 1365 1365
1365 1365 1365
1365 1365 1365
1365 1365 1365
1365 1365 2730
1365 1365 2730
1365 1365 2730
1365 1365 2730
0 1365 0
0 1365 0
0 1365 0
0 1365 0
0 1365 0
0 1365 1365
0 1365 1365
0 1365 1365
1365 1365 1365
1365 1365 1365
1365 1365 1365
1365 1365 2730
1365 1365 2730
1365 1365 2730
1365 1365 2730
1365 1365 2730
0 1365 0
0 1365 0
0 1365 0
0 1365 0
0 1365 0
0 1365 1365
1365 1365 1365
1365 1365 1365
1365 1365 1365
1365 1365 1365
1365 1365 1365
1365 1365 2730
1365 1365 2730
1365 1365 2730
1365 1365 2730
1365 1365 2730
0 1365 0
0 2730 0
0 2730 0
1365 2730 0
1365 2730 0
1365 2730 1365
1365 2730 1365
1365 2730 1365
1365 2730 1365
1365 2730 1365
1365 2730 1365
1365 2730 2730
1365 1365 2730
1365 1365 2730
1365 1365 2730
1365 1365 2730
1365 2730 0
1365 2730 0
1365 2730 0
1365 2730 0
1365 2730 0
1365 2730 1365
1365 2730 1365
1365 2730 1365
1365 2730 1365
1365 2730 1365
1365 2730 1365
1365 2730 2730
1365 2730 2730
1365 2730 2730
1365 2730 2730
1365 2730 2730
1365 2730 0
1365 2730 0
1365 2730 0
1365 2730 0
1365 2730 0
1365 2730 1365
1365 2730 1365
1365 2730 1365
1365 2730 1365
1365 2730 1365
1365 2730 1365
1365 2730 2730
1365 2730 2730
1365 2730 2730
1365 2730 2730
1365 2730 2730
1365 2730 0
1365 2730 0
1365 2730 0
1365 2730 0
1365 2730 0
1365 2730 1365
1365 2730 1365
1365 2730 1365
1365 2730 1365
1365 2730 1365
1365 2730 1365
1365 2730 2730
1365 2730 2730
1365 2730 2730
1365 2730 2730
1365 2730 2730
1365 2730 0
1365 2730 0
1365 2730 0
1365 2730 0
1365 2730 0
1365 2730 1365
1365 2730 1365
1365 2730 1365
1365 2730 1365
1365 2730 1365
1365 2730 2730
1365 2730 2730
1365 2730 2730
1365 2730 2730
1365 2730 2730
1365 2730 2730
1365 4095 0
1365 4095 0
1365 4095 0
1365 4095 0
1365 4095 0
1365 4095 1365
1365 4095 1365
1365 4095 1365
1365 4095 1365
1365 4095 1365
1365 4095 2730
1365 4095 2730
1365 4095 2730
1365 4095 2730
1365 4095 2730
1365 4095 2730
1365 4095 0
1365 4095 0
1365 4095 0
1365 4095 0
1365 4095 0
1365 4095 1365
1365 4095 1365
1365 4095 1365
1365 4095 1365
1365 4095 1365
1365 4095 2730
1365 4095 2730
1365 4095 2730
1365 4095 2730
1365 4095 2730
2730 4095 2730
0 0 0
0 0 0
0 0 0
0 0 0
0 0 0
0 0 0
0 0 0
0 0 1365
0 0 1365
0 0 1365
0 0 1365
0 0 1365
0 0 1365
1365 0 2730
1365 0 2730
1365 0 2730
0 0 0
0 0 0
0 0 0
0 0 0
0 0 0
0 0 0
0 0 1365
0 0 1365
0 0 1365
0 0 1365
0 0 1365
1365 0 1365
1365 0 2730
1365 0 2730
1365 0 2730
1365 0 2730
0 0 0
0 0 0
0 0 0
0 0 0
0 0 0
0 0 0
0 0 1365
0 0 1365
0 0 1365
0 0 1365
1365 0 1365
1365 0 1365
1365 0 2730
1365 0 2730
1365 0 2730
1365 0 2730
0 0 0
0 0 0
0 0 0
0 0 0
0 0 0
0 0 0
0 0 1365
0 0 1365
0 0 1365
0 0 1365
1365 0 1365
1365 0 1365
1365 0 2730
1365 0 2730
1365 0 2730
1365 0 2730
0 0 0
0 0 0
0 0 0
0 0 0
0 0 0
0 0 1365
0 0 1365
0 0 1365
0 0 1365
1365 0 1365
1365 0 1365
1365 0 1365
1365 0 2730
1365 0 2730
1365 0 2730
1365 0 2730
0 1365 0
0 1365 0
0 1365 0
0 1365 0
0 1365 0
0 1365 1365
0 1365 1365
0 1365 1365
1365 1365 1365
1365 1365 1365
1365 1365 1365
1365 1365 2730
1365 1365 2730
1365 1365 2730
1365 1365 2730
1365 1365 2730
0 1365 0
0 1365 0
0 1365 0
0 1365 0
0 1365 0
0 1365 1365
1365 1365 1365
1365 1365 1365
1365 1365 1365
1365 1365 1365
1365 1365 1365
1365 1365 2730
1365 1365 2730
1365 1365 2730
1365 1365 2730
1365 1365 2730
0 1365 0
0 1365 0
0 1365 0
0 1365 0
1365 1365 0
1365 1365 1365
1365 1365 1365
1365 1365 1365
1365 1365 1365
1365 1365 1365
1365 1365 1365
1365 1365 2730
1365 1365 2730
1365 1365 2730
1365 1365 2730
1365 1365 2730
0 1365 0
1365 1365 0
1365 1365 0
1365 1365 0
1365 1365 0
1365 1365 1365
1365 1365 1365
1365 1365 1365
1365 1365 1365
1365 1365 1365
1365 1365 1365
1365 1365 2730
1365 1365 2730
1365 1365 2730
1365 1365 2730
1365 1365 2730
1365 2730 0
1365 2730 0
1365 2730 0
1365 2730 0
1365 2730 0
1365 2730 1365
1365 2730 1365
1365 2730 1365
1365 2730 1365
1365 2730 1365
1365 2730 1365
1365 2730 2730
1365 2730 2730
1365 2730 2730
1365 2730 2730
1365 2730 2730
1365 2730 0
1365 2730 0
1365 2730 0
1365 2730 0
1365 2730 0
1365 2730 1365
1365 2730 1365
1365 2730 1365
1365 2730 1365
1365 2730 1365
1365 2730 2730
1365 2730 2730
1365 2730 2730
1365 2730 2730
1365 2730 2730
1365 2730 2730
1365 2730 0
1365 2730 0
1365 2730 0
1365 2730 0
1365 2730 0
1365 2730 1365
1365 2730 1365
1365 2730 1365
1365 2730 1365
1365 2730 1365
1365 2730 2730
1365 2730 2730
1365 2730 2730
1365 2730 2730
1365 2730 2730
1365 2730 2730
1365 2730 0
1365 2730 0
1365 2730 0
1365 2730 0
1365 2730 0
1365 2730 1365
1365 2730 1365
1365 2730 1365
1365 2730 1365
1365 2730 1365
1365 2730 2730
1365 2730 2730
1365 2730 2730
1365 2730 2730
1365 2730 2730
1365 2730 2730
1365 2730 0
1365 2730 0
1365 2730 0
1365 2730 0
1365 2730 0
1365 2730 1365
1365 2730 1365
1365 2730 1365
1365 2730 1365
1365 2730 1365
1365 2730 2730
1365 2730 2730
1365 2730 2730
1365 2730 2730
1365 2730 2730
1365 2730 2730
1365 4095 0
1365 4095 0
1365 4095 0
1365 4095 0
1365 4095 0
1365 4095 1365
1365 4095 1365
1365 4095 1365
1365 4095 1365
1365 4095 1365
1365 4095 2730
1365 4095 2730
1365 4095 2730
1365 4095 2730
1365 4095 2730
2730 4095 2730
1365 4095 0
1365 4095 0
1365 4095 0
1365 4095 0
1365 4095 0
1365 4095 1365
1365 4095 1365
1365 4095 1365
1365 4095 1365
1365 4095 1365
1365 4095 2730
1365 4095 2730
1365 4095 2730
2730 4095 2730
2730 4095 2730
2730 4095 2730
0 0 0
0 0 0
0 0 0
0 0 0
0 0 0
0 0 0
0 0 0
0 0 1365
0 0 1365
0 0 1365
0 0 1365
1365 0 1365
1365 0 1365
1365 0 2730
1365 0 2730
1365 0 2730
0 0 0
0 0 0
0 0 0
0 0 0
0 0 0
0 0 0
0 0 1365
0 0 1365
1365 0 1365
1365 0 1365
1365 0 1365
1365 0 1365
1365 0 2730
1365 0 2730
1365 0 2730
1365 0 2730
0 0 0
0 0 0
0 0 0
0 0 0
0 0 0
0 0 0
0 0 1365
1365 0 1365
1365 0 1365
1365 0 1365
1365 0 1365
1365 0 1365
1365 0 2730
1365 0 2730
1365 0 2730
1365 0 2730
0 0 0
0 0 0
0 0 0
0 0 0
0 0 0
0 0 1365
0 0 1365
1365 0 1365
1365 0 1365
1365 0 1365
1365 0 1365
1365 0 2730
1365 0 2730
1365 0 2730
1365 0 2730
1365 0 2730
0 0 0
0 0 0
0 1365 0
0 1365 0
0 1365 0
1365 1365 1365
1365 1365 1365
1365 1365 1365
1365 1365 1365
1365 0 1365
1365 0 1365
1365 0 2730
1365 0 2730
1365 0 2730
1365 0 2730
1365 0 2730
0 1365 0
0 1365 0
0 1365 0
1365 1365 0
1365 1365 0
1365 1365 1365
1365 1365 1365
1365 1365 1365
1365 1365 1365
1365 1365 1365
1365 1365 1365
1365 1365 2730
1365 1365 2730
1365 1365 2730
1365 1365 2730
1365 1365 2730
1365 1365 0
1365 1365 0
1365 1365 0
1365 1365 0
1365 1365 0
1365 1365 1365
1365 1365 1365
1365 1365 1365
1365 1365 1365
1365 1365 1365
1365 1365 1365
1365 1365 2730
1365 1365 2730
1365 1365 2730
1365 1365 2730
1365 1365 2730
1365 1365 0
1365 1365 0
1365 1365 0
1365 1365 0
1365 1365 0
1365 1365 1365
1365 1365 1365
1365 1365 1365
1365 1365 1365
1365 1365 1365
1365 1365 1365
1365 1365 2730
1365 1365 2730
1365 1365 2730
1365 1365 2730
1365 1365 2730
1365 1365 0
1365 1365 0
1365 1365 0
1365 1365 0
